projects/js-packages/social-logos/src/svg/reddit.svg

<svg enable-background="new 0 0 24 24" viewBox="0 0 24 24" xmlns="http://www.w3.org/2000/svg"><path d="m22 11.816c0-1.256-1.021-2.277-2.277-2.277-.593 0-1.122.24-1.526.614-1.481-.965-3.455-1.594-5.647-1.69l1.171-3.702 3.18.748c.008 1.028.846 1.862 1.876 1.862 1.035 0 1.877-.842 1.877-1.878 0-1.035-.842-1.877-1.877-1.877-.769 0-1.431.466-1.72 1.13l-3.508-.826c-.203-.047-.399.067-.46.261l-1.35 4.268c-2.316.038-4.411.67-5.97 1.671-.401-.355-.916-.581-1.492-.581-1.256 0-2.277 1.021-2.277 2.277 0 .814.433 1.523 1.078 1.925-.037.221-.061.444-.061.672 0 3.292 4.011 5.97 8.941 5.97s8.941-2.678 8.941-5.97c0-.214-.02-.424-.053-.632.687-.391 1.154-1.12 1.154-1.965zm-3.224-7.422c.606 0 1.1.493 1.1 1.1s-.493 1.1-1.1 1.1-1.1-.494-1.1-1.1.493-1.1 1.1-1.1zm-15.999 7.422c0-.827.672-1.5 1.499-1.5.313 0 .598.103.838.269-.851.676-1.477 1.479-1.812 2.36-.319-.273-.525-.675-.525-1.129zm9.182 7.79c-4.501 0-8.164-2.329-8.164-5.193s3.662-5.193 8.164-5.193 8.164 2.329 8.164 5.193-3.663 5.193-8.164 5.193zm8.677-6.605c-.326-.89-.948-1.701-1.797-2.384.248-.186.55-.301.883-.301.827 0 1.5.673 1.5 1.5.001.483-.23.911-.586 1.185zm-11.64 1.703c-.76 0-1.397-.616-1.397-1.376s.637-1.397 1.397-1.397 1.376.637 1.376 1.397-.616 1.376-1.376 1.376zm7.405-1.376c0 .76-.616 1.376-1.376 1.376s-1.399-.616-1.399-1.376.639-1.397 1.399-1.397 1.376.637 1.376 1.397zm-1.172 3.38c.152.152.152.398 0 .55-.674.674-1.727 1.002-3.219 1.002-.004 0-.007-.002-.011-.002s-.007.002-.011.002c-1.492 0-2.544-.328-3.218-1.002-.152-.152-.152-.398 0-.55s.399-.151.55 0c.521.521 1.394.775 2.669.775.004 0 .007.002.011.002s.007-.002.011-.002c1.275 0 2.148-.253 2.669-.775.151-.152.398-.152.549 0z"/></svg>

<?xml version="1.0" encoding="iso-8859-1"?>
<!-- Generator: Adobe Illustrator 19.2.1, SVG Export Plug-In . SVG Version: 6.00 Build 0)  -->
<svg version="1.1" xmlns="http://www.w3.org/2000/svg" xmlns:xlink="http://www.w3.org/1999/xlink" x="0px" y="0px"
	 viewBox="0 0 24 24" style="enable-background:new 0 0 24 24;" xml:space="preserve">
<g id="reddit">
	<path d="M22,11.816c0-1.256-1.021-2.277-2.277-2.277c-0.593,0-1.122,0.24-1.526,0.614c-1.481-0.965-3.455-1.594-5.647-1.69
		l1.171-3.702l3.18,0.748c0.008,1.028,0.846,1.862,1.876,1.862c1.035,0,1.877-0.842,1.877-1.878c0-1.035-0.842-1.877-1.877-1.877
		c-0.769,0-1.431,0.466-1.72,1.13l-3.508-0.826c-0.203-0.047-0.399,0.067-0.46,0.261l-1.35,4.268
		c-2.316,0.038-4.411,0.67-5.97,1.671C5.368,9.765,4.853,9.539,4.277,9.539C3.021,9.539,2,10.56,2,11.816
		c0,0.814,0.433,1.523,1.078,1.925c-0.037,0.221-0.061,0.444-0.061,0.672c0,3.292,4.011,5.97,8.941,5.97s8.941-2.678,8.941-5.97
		c0-0.214-0.02-0.424-0.053-0.632C21.533,13.39,22,12.661,22,11.816z M18.776,4.394c0.606,0,1.1,0.493,1.1,1.1s-0.493,1.1-1.1,1.1
		s-1.1-0.494-1.1-1.1S18.169,4.394,18.776,4.394z M2.777,11.816c0-0.827,0.672-1.5,1.499-1.5c0.313,0,0.598,0.103,0.838,0.269
		c-0.851,0.676-1.477,1.479-1.812,2.36C2.983,12.672,2.777,12.27,2.777,11.816z M11.959,19.606c-4.501,0-8.164-2.329-8.164-5.193
		S7.457,9.22,11.959,9.22s8.164,2.329,8.164,5.193S16.46,19.606,11.959,19.606z M20.636,13.001c-0.326-0.89-0.948-1.701-1.797-2.384
		c0.248-0.186,0.55-0.301,0.883-0.301c0.827,0,1.5,0.673,1.5,1.5C21.223,12.299,20.992,12.727,20.636,13.001z M8.996,14.704
		c-0.76,0-1.397-0.616-1.397-1.376c0-0.76,0.637-1.397,1.397-1.397c0.76,0,1.376,0.637,1.376,1.397
		C10.372,14.088,9.756,14.704,8.996,14.704z M16.401,13.328c0,0.76-0.616,1.376-1.376,1.376c-0.76,0-1.399-0.616-1.399-1.376
		c0-0.76,0.639-1.397,1.399-1.397C15.785,11.931,16.401,12.568,16.401,13.328z M15.229,16.708c0.152,0.152,0.152,0.398,0,0.55
		c-0.674,0.674-1.727,1.002-3.219,1.002c-0.004,0-0.007-0.002-0.011-0.002c-0.004,0-0.007,0.002-0.011,0.002
		c-1.492,0-2.544-0.328-3.218-1.002c-0.152-0.152-0.152-0.398,0-0.55c0.152-0.152,0.399-0.151,0.55,0
		c0.521,0.521,1.394,0.775,2.669,0.775c0.004,0,0.007,0.002,0.011,0.002c0.004,0,0.007-0.002,0.011-0.002
		c1.275,0,2.148-0.253,2.669-0.775C14.831,16.556,15.078,16.556,15.229,16.708z"/>
</g>
<g id="Layer_1">
</g>
</svg>
